X: 0
T: Christ Is Born! Christ Is Born!
L: 1/4
M: 4/4
Q: 1/4=120
K: G
[V: P1]  A B | c2 G A | B2 F G | A F E F | D2 A B | c2 B ^c | ^d2 ^c ^d | e f =d ^c | B2 (e/f/) e | d B c d | B2 (A/c/) B | [M: 3/2]  G E F3 G | [M: 4/4]  E4|]

